; generated by PrusaSlicer 2.3.3+win64 on 2021-12-10 at 02:05:49 UTC


;
;

;
;
; 

; external perimeters extrusion width = 0.45mm
; perimeters extrusion width = 0.45mm
; infill extrusion width = 0.45mm
; solid infill extrusion width = 0.45mm
; top infill extrusion width = 0.40mm
; first layer extrusion width = 0.42mm

M73 P0 R3
M201 X1250 Y1250 Z400 E5000 ; sets maximum accelerations, mm/sec^2
M203 X180 Y180 Z12 E80 ; sets maximum feedrates, mm/sec
M204 P1250 R1250 T1250 ; sets acceleration (P, T) and retract acceleration (R), mm/sec^2
M205 X8.00 Y8.00 Z2.00 E10.00 ; sets the jerk limits, mm/sec
M205 S0 T0 ; sets the minimum extruding and travel feed rate, mm/sec
M107
;TYPE:Custom
G90 ; use absolute coordinates
M83 ; extruder relative mode
M104 S170 ; set extruder temp for bed leveling
M140 S60 ; set bed temp
M109 R170 ; wait for bed leveling temp
M190 S60 ; wait for bed temp
G28 ; home all without mesh bed level
G29 ; mesh bed leveling 
M104 S215 ; set extruder temp
G92 E0.0
G1 Y-2.0 X179 F2400
M73 P2 R3
G1 Z3 F720
M109 S215 ; wait for extruder temp

; intro line
G1 X170 F1000
G1 Z0.2 F720
G1 X110.0 E8.0 F900
M73 P4 R3
G1 X40.0 E10.0 F700
G92 E0.0

M221 S95 ; set flow
G21 ; set units to millimeters
G90 ; use absolute coordinates
M83 ; use relative distances for extrusion
M900 K0.2 ; Filament gcode LA 1.5
; ; Filament gcode LA 1.0
;LAYER_CHANGE
;Z:0.2
;HEIGHT:0.2
;BEFORE_LAYER_CHANGE
G92 E0.0
;0.2


M73 P7 R3
G1 E-3.20000 F4200.000
M73 P8 R3
G1 Z0.200 F9000.000
;AFTER_LAYER_CHANGE
;0.2
G1 Z0.400
G1 X159.364 Y87.439
G1 Z0.200
G1 E3.20000 F2400.000
M204 S800
;TYPE:Skirt
;WIDTH:0.42
G1 F1200.000
G1 X159.873 Y86.837 E0.02473
G1 X160.485 Y86.355 E0.02444
G1 X161.360 Y85.940 E0.03035
G1 X162.345 Y85.750 E0.03146
G1 X169.791 Y85.742 E0.23345
G1 X170.436 Y85.797 E0.02031
G1 X171.061 Y85.956 E0.02021
G1 X172.165 Y86.550 E0.03931
M73 P9 R3
G1 X172.637 Y86.977 E0.01996
G1 X173.037 Y87.481 E0.02015
G1 X173.352 Y88.051 E0.02043
G1 X173.568 Y88.666 E0.02043
G1 X173.685 Y89.395 E0.02317
G1 X173.693 Y90.450 E0.03308
G1 X173.483 Y91.616 E0.03713
G1 X173.212 Y92.229 E0.02101
G1 X172.872 Y92.747 E0.01944
G1 X172.425 Y93.232 E0.02068
G1 X171.887 Y93.645 E0.02127
G1 X171.008 Y94.061 E0.03050
G1 X170.009 Y94.251 E0.03189
G1 X162.187 Y94.236 E0.24524
G1 X161.316 Y94.045 E0.02797
G1 X160.531 Y93.674 E0.02723
G1 X159.848 Y93.138 E0.02722
G1 X159.291 Y92.451 E0.02774
G1 X158.928 Y91.724 E0.02546
G1 X158.723 Y90.939 E0.02546
G1 X158.678 Y89.601 E0.04199
G1 X158.752 Y88.892 E0.02235
G1 X158.987 Y88.127 E0.02507
G1 X159.335 Y87.492 E0.02271
M204 S1250
G1 E-2.24000 F4200.000
;WIPE_START
G1 F7200.000
G1 X159.873 Y86.837 E-0.46968
G1 X160.485 Y86.355 E-0.43203
G1 X160.502 Y86.347 E-0.01029
;WIPE_END
G1 E-0.04800 F4200.000
G1 Z0.400 F9000.000
G1 X172.747 Y87.726
G1 Z0.200
G1 E3.20000 F2400.000
M204 S800
G1 F1200.000
G1 X173.216 Y88.811 E0.03706
G1 X173.312 Y89.458 E0.02051
G1 X173.315 Y90.471 E0.03177
M73 P10 R3
G1 X173.109 Y91.542 E0.03420
G1 X172.839 Y92.123 E0.02008
G1 X172.494 Y92.615 E0.01885
G1 X172.095 Y93.021 E0.01785
G1 X171.591 Y93.384 E0.01946
G1 X170.773 Y93.739 E0.02797
G1 X169.952 Y93.877 E0.02610
G1 X162.201 Y93.859 E0.24304
G1 X161.402 Y93.676 E0.02568
G1 X160.678 Y93.321 E0.02528
G1 X160.047 Y92.804 E0.02557
G1 X159.552 Y92.155 E0.02559
G1 X159.255 Y91.518 E0.02204
G1 X159.086 Y90.812 E0.02277
G1 X159.056 Y89.564 E0.03915
G1 X159.139 Y88.887 E0.02139
G1 X159.362 Y88.210 E0.02233
G1 X159.721 Y87.587 E0.02256
G1 X160.193 Y87.054 E0.02231
G1 X160.781 Y86.616 E0.02301
G1 X161.595 Y86.262 E0.02783
G1 X162.407 Y86.124 E0.02582
G1 X169.790 Y86.119 E0.23150
G1 X170.945 Y86.315 E0.03674
G1 X171.947 Y86.858 E0.03572
G1 X172.706 Y87.682 E0.03511
M204 S1250
G1 X172.459 Y87.976 F9000.000
M204 S800
G1 F1200.000
G1 X172.868 Y88.979 E0.03396
G1 X172.936 Y90.505 E0.04789
G1 X172.725 Y91.494 E0.03171
M73 P11 R3
G1 X172.467 Y92.010 E0.01810
G1 X172.124 Y92.466 E0.01789
G1 X171.696 Y92.860 E0.01825
G1 X171.238 Y93.149 E0.01697
G1 X170.573 Y93.404 E0.02232
G1 X169.895 Y93.502 E0.02148
G1 X162.196 Y93.479 E0.24140
G1 X161.462 Y93.296 E0.02374
G1 X160.786 Y92.940 E0.02394
G1 X160.229 Y92.445 E0.02337
G1 X159.787 Y91.802 E0.02446
G1 X159.548 Y91.192 E0.02053
G1 X159.442 Y90.590 E0.01918
G1 X159.436 Y89.500 E0.03419
G1 X159.537 Y88.845 E0.02076
G1 X159.755 Y88.261 E0.01954
G1 X160.107 Y87.702 E0.02071
G1 X160.551 Y87.242 E0.02005
G1 X161.134 Y86.851 E0.02203
G1 X161.795 Y86.597 E0.02219
G1 X162.465 Y86.498 E0.02123
G1 X169.790 Y86.496 E0.22968
G1 X170.838 Y86.677 E0.03333
G1 X171.744 Y87.178 E0.03246
G1 X172.419 Y87.931 E0.03170
M204 S1250
G1 X172.163 Y88.215 F9000.000
M204 S800
G1 F1200.000
G1 X172.508 Y89.103 E0.02988
G1 X172.558 Y90.505 E0.04399
G1 X172.356 Y91.401 E0.02881
G1 X171.795 Y92.267 E0.03236
G1 X170.978 Y92.858 E0.03161
G1 X170.426 Y93.052 E0.01833
G1 X169.862 Y93.126 E0.01784
M73 P12 R3
G1 X162.236 Y93.104 E0.23912
G1 X161.563 Y92.932 E0.02178
G1 X160.969 Y92.607 E0.02123
G1 X160.479 Y92.156 E0.02088
G1 X160.078 Y91.542 E0.02299
G1 X159.891 Y91.016 E0.01750
G1 X159.813 Y90.483 E0.01689
G1 X159.815 Y89.476 E0.03158
G1 X159.935 Y88.827 E0.02069
G1 X160.172 Y88.278 E0.01874
G1 X160.499 Y87.819 E0.01768
G1 X160.921 Y87.428 E0.01804
G1 X161.394 Y87.142 E0.01733
G1 X161.942 Y86.949 E0.01821
G1 X162.503 Y86.874 E0.01772
G1 X169.790 Y86.873 E0.22849
G1 X170.743 Y87.043 E0.03035
G1 X171.568 Y87.521 E0.02989
G1 X172.124 Y88.169 E0.02676
M204 S1250
G1 E-2.24000 F4200.000
;WIPE_START
G1 F7200.000
G1 X172.508 Y89.103 E-0.55967
G1 X172.531 Y89.738 E-0.35233
;WIPE_END
G1 E-0.04800 F4200.000
G1 Z0.400 F9000.000
G1 X174.327 Y87.295
G1 Z0.200
G1 E3.20000 F2400.000
M204 S800
G1 F1200.000
G1 X174.761 Y88.469 E0.03926
G1 X174.894 Y89.404 E0.02960
G1 X174.889 Y90.666 E0.03955
G1 X174.733 Y91.645 E0.03111
M73 P13 R3
G1 X174.433 Y92.484 E0.02792
G1 X173.965 Y93.297 E0.02942
G1 X173.109 Y94.236 E0.03983
G1 X172.035 Y94.942 E0.04030
G1 X171.067 Y95.300 E0.03237
G1 X170.008 Y95.458 E0.03358
G1 X162.154 Y95.444 E0.24626
G1 X161.464 Y95.339 E0.02188
G1 X160.787 Y95.143 E0.02210
G1 X159.554 Y94.468 E0.04406
G1 X158.346 Y93.207 E0.05476
G1 X157.760 Y92.032 E0.04118
G1 X157.497 Y90.785 E0.03995
G1 X157.472 Y89.530 E0.03935
G1 X157.592 Y88.551 E0.03094
G1 X157.934 Y87.531 E0.03371
G1 X158.481 Y86.601 E0.03383
G1 X159.307 Y85.728 E0.03769
G1 X160.183 Y85.138 E0.03311
G1 X161.184 Y84.733 E0.03385
G1 X162.345 Y84.543 E0.03690
G1 X169.981 Y84.540 E0.23942
G1 X170.834 Y84.645 E0.02693
M73 P14 R3
G1 X171.700 Y84.908 E0.02838
G1 X172.482 Y85.305 E0.02750
G1 X173.163 Y85.809 E0.02656
G1 X173.817 Y86.505 E0.02996
G1 X174.294 Y87.244 E0.02758
M204 S1250
G1 X173.977 Y87.448 F9000.000
M204 S800
G1 F1200.000
G1 X174.400 Y88.580 E0.03789
G1 X174.517 Y89.416 E0.02648
G1 X174.512 Y90.650 E0.03869
G1 X174.371 Y91.536 E0.02814
G1 X174.097 Y92.311 E0.02577
G1 X173.648 Y93.091 E0.02823
G1 X172.881 Y93.935 E0.03574
G1 X171.883 Y94.596 E0.03752
G1 X170.955 Y94.940 E0.03104
G1 X169.968 Y95.083 E0.03128
G1 X162.169 Y95.067 E0.24452
G1 X161.534 Y94.968 E0.02014
G1 X160.913 Y94.787 E0.02030
G1 X159.762 Y94.153 E0.04119
G1 X158.640 Y92.969 E0.05113
G1 X158.109 Y91.888 E0.03777
G1 X157.870 Y90.727 E0.03717
G1 X157.849 Y89.537 E0.03730
G1 X157.964 Y88.617 E0.02909
G1 X158.284 Y87.672 E0.03129
G1 X158.794 Y86.812 E0.03134
G1 X159.535 Y86.029 E0.03380
G1 X160.377 Y85.462 E0.03182
G1 X161.304 Y85.091 E0.03130
G1 X162.390 Y84.918 E0.03448
G1 X169.948 Y84.916 E0.23698
M73 P15 R3
G1 X170.741 Y85.011 E0.02506
G1 X171.545 Y85.252 E0.02632
G1 X172.270 Y85.618 E0.02546
G1 X172.924 Y86.102 E0.02550
G1 X173.530 Y86.749 E0.02780
G1 X173.945 Y87.397 E0.02411
M204 S1250
G1 X173.627 Y87.599 F9000.000
M204 S800
G1 F1200.000
G1 X173.668 Y87.664 E0.00242
G1 X174.038 Y88.688 E0.03414
G1 X174.140 Y89.428 E0.02339
G1 X174.135 Y90.634 E0.03783
G1 X174.010 Y91.428 E0.02521
G1 X173.762 Y92.138 E0.02358
G1 X173.331 Y92.886 E0.02704
G1 X172.652 Y93.634 E0.03170
G1 X171.731 Y94.250 E0.03472
G1 X170.843 Y94.579 E0.02968
G1 X169.929 Y94.708 E0.02896
G1 X162.185 Y94.690 E0.24280
G1 X161.606 Y94.598 E0.01838
G1 X161.040 Y94.431 E0.01851
G1 X159.972 Y93.838 E0.03831
G1 X158.936 Y92.733 E0.04749
G1 X158.460 Y91.746 E0.03435
G1 X158.243 Y90.670 E0.03442
G1 X158.227 Y89.545 E0.03527
G1 X158.336 Y88.684 E0.02723
G1 X158.634 Y87.813 E0.02885
G1 X159.107 Y87.024 E0.02885
M73 P16 R3
G1 X159.764 Y86.329 E0.02999
G1 X160.536 Y85.804 E0.02926
G1 X161.423 Y85.449 E0.02996
G1 X162.433 Y85.293 E0.03203
G1 X169.915 Y85.292 E0.23461
G1 X170.650 Y85.377 E0.02321
G1 X171.391 Y85.597 E0.02422
G1 X172.086 Y85.947 E0.02440
G1 X172.685 Y86.393 E0.02342
G1 X173.242 Y86.993 E0.02566
G1 X173.594 Y87.548 E0.02063
M204 S1250
G1 E-2.24000 F4200.000
;WIPE_START
G1 F7200.000
G1 X173.668 Y87.664 E-0.07611
G1 X174.038 Y88.688 E-0.60346
G1 X174.095 Y89.104 E-0.23242
;WIPE_END
G1 E-0.04800 F4200.000
G1 Z0.400 F9000.000
G1 X171.982 Y88.521
G1 Z0.200
G1 E3.20000 F2400.000
M204 S800
G1 F1200.000
G1 X172.194 Y89.084 E0.01886
G1 X172.254 Y89.493 E0.01296
G1 X172.254 Y90.504 E0.03171
G1 X172.184 Y90.956 E0.01434
G1 X172.028 Y91.395 E0.01462
G1 X171.760 Y91.839 E0.01625
G1 X171.382 Y92.238 E0.01723
G1 X170.830 Y92.592 E0.02057
G1 X170.341 Y92.760 E0.01621
G1 X169.843 Y92.824 E0.01575
G1 X162.380 Y92.814 E0.23401
G1 X162.016 Y92.757 E0.01154
G1 X161.688 Y92.657 E0.01075
G1 X161.035 Y92.274 E0.02374
G1 X160.543 Y91.744 E0.02267
G1 X160.230 Y91.094 E0.02262
M73 P17 R3
G1 X160.112 Y90.412 E0.02171
G1 X160.112 Y89.597 E0.02555
G1 X160.171 Y89.117 E0.01515
G1 X160.313 Y88.676 E0.01454
G1 X160.582 Y88.200 E0.01713
G1 X160.973 Y87.777 E0.01807
G1 X161.467 Y87.445 E0.01866
G1 X161.965 Y87.256 E0.01668
G1 X162.528 Y87.176 E0.01784
G1 X169.858 Y87.177 E0.22983
G1 X170.308 Y87.232 E0.01421
G1 X170.726 Y87.362 E0.01372
G1 X171.118 Y87.566 E0.01387
G1 X171.470 Y87.838 E0.01395
G1 X171.784 Y88.191 E0.01481
G1 X171.951 Y88.469 E0.01018
M204 S1250
G1 X171.677 Y88.744 F9000.000
M204 S800
G1 F1200.000
G1 X171.824 Y89.158 E0.01380
G1 X171.877 Y89.507 E0.01107
G1 X171.877 Y90.488 E0.03076
G1 X171.815 Y90.877 E0.01235
G1 X171.680 Y91.247 E0.01235
G1 X171.450 Y91.624 E0.01383
G1 X171.127 Y91.960 E0.01464
G1 X170.684 Y92.244 E0.01650
G1 X170.272 Y92.389 E0.01368
G1 X169.831 Y92.447 E0.01395
G1 X162.422 Y92.439 E0.23231
G1 X162.112 Y92.392 E0.00980
G1 X161.819 Y92.303 E0.00963
G1 X161.289 Y91.995 E0.01922
G1 X160.870 Y91.553 E0.01908
G1 X160.582 Y90.955 E0.02081
G1 X160.489 Y90.397 E0.01775
G1 X160.489 Y89.609 E0.02471
G1 X160.542 Y89.183 E0.01345
G1 X160.665 Y88.813 E0.01220
G1 X160.898 Y88.408 E0.01466
G1 X161.233 Y88.051 E0.01537
G1 X161.624 Y87.789 E0.01476
G1 X162.041 Y87.626 E0.01404
G1 X162.542 Y87.553 E0.01586
G1 X169.847 Y87.554 E0.22905
M73 P18 R3
G1 X170.215 Y87.598 E0.01163
G1 X170.568 Y87.705 E0.01155
G1 X170.928 Y87.892 E0.01273
G1 X171.223 Y88.123 E0.01174
G1 X171.488 Y88.426 E0.01262
G1 X171.646 Y88.692 E0.00971
M204 S1250
G1 X171.321 Y88.882 F9000.000
M204 S800
G1 F1200.000
G1 X171.454 Y89.235 E0.01184
G1 X171.500 Y89.523 E0.00914
G1 X171.500 Y90.474 E0.02983
G1 X171.454 Y90.766 E0.00927
G1 X171.333 Y91.099 E0.01112
G1 X171.142 Y91.406 E0.01131
G1 X170.873 Y91.681 E0.01208
G1 X170.535 Y91.897 E0.01258
G1 X170.201 Y92.018 E0.01114
G1 X169.818 Y92.070 E0.01210
G1 X162.462 Y92.064 E0.23066
G1 X162.208 Y92.027 E0.00803
G1 X161.951 Y91.949 E0.00843
G1 X161.506 Y91.685 E0.01622
G1 X161.168 Y91.320 E0.01560
G1 X160.936 Y90.822 E0.01724
G1 X160.866 Y90.383 E0.01394
G1 X160.866 Y89.620 E0.02393
G1 X160.907 Y89.280 E0.01073
G1 X161.003 Y88.980 E0.00988
G1 X161.191 Y88.646 E0.01201
G1 X161.465 Y88.349 E0.01267
G1 X161.781 Y88.132 E0.01204
G1 X162.157 Y87.986 E0.01263
G1 X162.554 Y87.930 E0.01257
G1 X169.835 Y87.931 E0.22829
G1 X170.152 Y87.970 E0.01000
G1 X170.438 Y88.059 E0.00940
G1 X170.735 Y88.216 E0.01053
G1 X170.973 Y88.406 E0.00955
G1 X171.190 Y88.658 E0.01043
G1 X171.291 Y88.830 E0.00625
M204 S1250
G1 X170.964 Y89.016 F9000.000
M204 S800
G1 F1200.000
G1 X171.092 Y89.340 E0.01090
G1 X171.125 Y89.563 E0.00709
G1 X171.125 Y90.434 E0.02730
G1 X171.092 Y90.660 E0.00718
G1 X171.001 Y90.918 E0.00857
G1 X170.834 Y91.187 E0.00992
G1 X170.623 Y91.398 E0.00936
G1 X170.355 Y91.565 E0.00992
G1 X170.096 Y91.656 E0.00858
G1 X169.807 Y91.693 E0.00916
G1 X162.502 Y91.689 E0.22903
M73 P19 R3
G1 X162.278 Y91.656 E0.00711
G1 X162.087 Y91.597 E0.00627
G1 X161.727 Y91.379 E0.01320
G1 X161.469 Y91.092 E0.01207
G1 X161.291 Y90.694 E0.01369
G1 X161.244 Y90.370 E0.01027
G1 X161.243 Y89.631 E0.02316
G1 X161.279 Y89.346 E0.00902
G1 X161.355 Y89.118 E0.00752
G1 X161.506 Y88.854 E0.00954
G1 X161.723 Y88.624 E0.00991
G1 X161.971 Y88.459 E0.00936
G1 X162.268 Y88.347 E0.00995
G1 X162.566 Y88.307 E0.00942
G1 X169.825 Y88.308 E0.22759
G1 X170.057 Y88.335 E0.00733
G1 X170.308 Y88.413 E0.00823
G1 X170.538 Y88.538 E0.00822
G1 X170.720 Y88.686 E0.00736
G1 X170.934 Y88.964 E0.01100
M204 S1250
G1 X170.573 Y89.091 F9000.000
M204 S800
G1 F1200.000
G1 X170.668 Y89.257 E0.00601
G1 X170.728 Y89.439 E0.00601
G1 X170.750 Y89.600 E0.00508
G1 X170.750 Y90.398 E0.02501
G1 X170.728 Y90.560 E0.00515
G1 X170.667 Y90.744 E0.00607
G1 X170.550 Y90.937 E0.00707
G1 X170.374 Y91.114 E0.00783
G1 X170.180 Y91.230 E0.00707
G1 X169.997 Y91.291 E0.00605
G1 X169.796 Y91.316 E0.00635
G1 X162.539 Y91.313 E0.22756
G1 X162.374 Y91.291 E0.00521
G1 X162.224 Y91.244 E0.00494
G1 X161.953 Y91.075 E0.01001
G1 X161.776 Y90.871 E0.00849
G1 X161.649 Y90.573 E0.01015
G1 X161.621 Y90.359 E0.00677
G1 X161.621 Y89.642 E0.02249
G1 X161.644 Y89.441 E0.00633
G1 X161.695 Y89.282 E0.00523
G1 X161.801 Y89.090 E0.00689
G1 X161.952 Y88.924 E0.00703
G1 X162.160 Y88.786 E0.00783
G1 X162.373 Y88.709 E0.00710
G1 X162.576 Y88.684 E0.00642
G1 X169.815 Y88.685 E0.22696
M73 P20 R3
G1 X169.967 Y88.702 E0.00481
G1 X170.150 Y88.756 E0.00597
G1 X170.319 Y88.846 E0.00601
G1 X170.449 Y88.948 E0.00518
G1 X170.533 Y89.046 E0.00403
M204 S1250
G1 X170.246 Y89.288 F9000.000
M204 S800
G1 F1200.000
G1 X170.327 Y89.420 E0.00484
G1 X170.374 Y89.631 E0.00680
G1 X170.362 Y90.468 E0.02623
G1 X170.327 Y90.579 E0.00365
G1 X170.264 Y90.690 E0.00402
G1 X170.126 Y90.828 E0.00609
G1 X170.015 Y90.891 E0.00402
G1 X169.905 Y90.926 E0.00363
G1 X169.787 Y90.938 E0.00371
G1 X162.570 Y90.938 E0.22629
G1 X162.363 Y90.893 E0.00665
G1 X162.186 Y90.778 E0.00660
G1 X162.088 Y90.659 E0.00484
G1 X162.010 Y90.461 E0.00665
G1 X161.998 Y89.651 E0.02541
G1 X162.038 Y89.439 E0.00677
G1 X162.102 Y89.318 E0.00430
G1 X162.184 Y89.223 E0.00394
G1 X162.346 Y89.115 E0.00609
G1 X162.469 Y89.074 E0.00406
G1 X169.803 Y89.062 E0.22996
G1 X170.016 Y89.109 E0.00685
G1 X170.120 Y89.166 E0.00370
G1 X170.207 Y89.242 E0.00363
M204 S1250
; printing object MonofilamentAssemblyJigV1.stl id:0 copy 0
G1 X169.771 Y89.665 F9000.000
M204 S800
;TYPE:External perimeter
G1 F1200.000
G1 X169.771 Y90.333 E0.02096
G1 X169.748 Y90.340 E0.00077
G1 X162.601 Y90.337 E0.22410
G1 X162.600 Y89.664 E0.02108
G1 X169.711 Y89.665 E0.22299
M204 S1250
M73 P21 R3
G1 X169.582 Y90.017 F9000.000
G1 E-2.24000 F4200.000
;WIPE_START
G1 F7200.000
G1 X169.771 Y90.333 E-0.37197
G1 X169.748 Y90.340 E-0.01366
G1 X168.798 Y90.340 E-0.52637
;WIPE_END
G1 E-0.04800 F4200.000
G1 Z0.400 F9000.000
G1 X162.787 Y90.001
G1 Z0.200
G1 E3.20000 F2400.000
M204 S800
;TYPE:Gap fill
;WIDTH:0.345775
G1 F1200.000
G1 X169.583 Y90.002 E0.17114
M204 S1250
; stop printing object MonofilamentAssemblyJigV1.stl id:0 copy 0
M106 S84.15
;LAYER_CHANGE
;Z:0.35
;HEIGHT:0.15
;BEFORE_LAYER_CHANGE
G92 E0.0
;0.35


G1 E-2.24000 F4200.000
;WIPE_START
G1 F7200.000
G1 X167.937 Y90.002 E-0.91200
;WIPE_END
G1 E-0.04800 F4200.000
G1 Z0.400 F9000.000
;AFTER_LAYER_CHANGE
;0.35
G1 X171.008 Y94.061
G1 Z0.350
G1 E3.20000 F2400.000
;TYPE:Skirt
;WIDTH:0.42
G1 F900
G1 X170.009 Y94.251 E0.02460
G1 X162.187 Y94.236 E0.18916
G1 X161.316 Y94.045 E0.02157
G1 X160.531 Y93.674 E0.02100
G1 X159.848 Y93.138 E0.02099
M73 P22 R3
G1 X159.291 Y92.451 E0.02140
G1 X158.928 Y91.724 E0.01964
G1 X158.723 Y90.939 E0.01963
G1 X158.678 Y89.601 E0.03239
G1 X158.752 Y88.892 E0.01724
G1 X158.987 Y88.127 E0.01934
