; generated by PrusaSlicer 2.3.3+win64 on 2022-03-06 at 18:21:19 UTC


;
;

;
;
; 

; external perimeters extrusion width = 0.45mm
; perimeters extrusion width = 0.45mm
; infill extrusion width = 0.45mm
; solid infill extrusion width = 0.45mm
; top infill extrusion width = 0.40mm
; first layer extrusion width = 0.42mm

M73 P0 R11
M201 X1250 Y1250 Z400 E5000 ; sets maximum accelerations, mm/sec^2
M203 X180 Y180 Z12 E80 ; sets maximum feedrates, mm/sec
M204 P1250 R1250 T1250 ; sets acceleration (P, T) and retract acceleration (R), mm/sec^2
M205 X8.00 Y8.00 Z2.00 E10.00 ; sets the jerk limits, mm/sec
M205 S0 T0 ; sets the minimum extruding and travel feed rate, mm/sec
M107
;TYPE:Custom
G90 ; use absolute coordinates
M83 ; extruder relative mode
M104 S170 ; set extruder temp for bed leveling
M140 S60 ; set bed temp
M109 R170 ; wait for bed leveling temp
M190 S60 ; wait for bed temp
G28 ; home all without mesh bed level
G29 ; mesh bed leveling 
M104 S215 ; set extruder temp
G92 E0.0
G1 Y-2.0 X179 F2400
G1 Z3 F720
M109 S215 ; wait for extruder temp

; intro line
G1 X170 F1000
G1 Z0.2 F720
G1 X110.0 E8.0 F900
M73 P1 R11
G1 X40.0 E10.0 F700
G92 E0.0

M221 S95 ; set flow
G21 ; set units to millimeters
G90 ; use absolute coordinates
M83 ; use relative distances for extrusion
M900 K0.2 ; Filament gcode LA 1.5
; ; Filament gcode LA 1.0
;LAYER_CHANGE
;Z:0.2
;HEIGHT:0.2
;BEFORE_LAYER_CHANGE
G92 E0.0
;0.2


M73 P2 R11
G1 E-3.20000 F4200.000
G1 Z0.200 F9000.000
;AFTER_LAYER_CHANGE
;0.2
G1 Z0.400
G1 X151.320 Y83.963
G1 Z0.200
G1 E3.20000 F2400.000
M204 S800
;TYPE:Skirt
;WIDTH:0.42
G1 F1200.000
G1 X152.006 Y82.983 E0.03749
G1 X154.391 Y80.609 E0.10553
G1 X155.427 Y79.944 E0.03860
G1 X158.547 Y78.661 E0.10578
G1 X159.744 Y78.443 E0.03812
G1 X162.755 Y78.426 E0.09443
G1 X164.286 Y78.698 E0.04875
G1 X167.429 Y80.006 E0.10674
G1 X168.448 Y80.714 E0.03890
G1 X170.820 Y83.096 E0.10540
G1 X171.499 Y84.153 E0.03940
G1 X172.782 Y87.293 E0.10634
G1 X172.993 Y88.483 E0.03791
G1 X172.983 Y91.830 E0.10494
G1 X172.715 Y93.055 E0.03932
G1 X171.401 Y96.186 E0.10647
G1 X170.714 Y97.165 E0.03749
G1 X168.299 Y99.561 E0.10667
G1 X167.273 Y100.214 E0.03811
G1 X164.137 Y101.494 E0.10621
G1 X162.951 Y101.704 E0.03778
G1 X159.604 Y101.694 E0.10494
G1 X158.379 Y101.427 E0.03932
G1 X155.248 Y100.112 E0.10647
G1 X154.266 Y99.423 E0.03762
G1 X151.873 Y97.010 E0.10654
G1 X151.230 Y95.999 E0.03757
G1 X149.939 Y92.847 E0.10680
M73 P3 R11
G1 X149.730 Y91.662 E0.03773
G1 X149.740 Y88.315 E0.10494
G1 X150.008 Y87.090 E0.03932
G1 X151.297 Y84.018 E0.10446
M204 S1250
G1 X151.641 Y84.162 F9000.000
M204 S800
G1 F1200.000
G1 X152.293 Y83.225 E0.03578
G1 X154.623 Y80.906 E0.10308
G1 X155.600 Y80.278 E0.03642
G1 X158.648 Y79.024 E0.10332
G1 X159.768 Y78.819 E0.03571
G1 X162.756 Y78.804 E0.09368
G1 X164.170 Y79.057 E0.04506
G1 X167.245 Y80.335 E0.10440
G1 X168.206 Y81.001 E0.03666
G1 X170.526 Y83.331 E0.10309
G1 X171.158 Y84.315 E0.03665
G1 X172.416 Y87.385 E0.10403
G1 X172.616 Y88.502 E0.03558
G1 X172.608 Y91.786 E0.10297
G1 X172.360 Y92.928 E0.03666
G1 X171.077 Y95.992 E0.10415
G1 X170.428 Y96.923 E0.03558
G1 X168.075 Y99.257 E0.10391
G1 X167.116 Y99.871 E0.03570
G1 X164.046 Y101.129 E0.10403
G1 X162.932 Y101.327 E0.03546
G1 X159.644 Y101.319 E0.10309
G1 X158.506 Y101.072 E0.03654
G1 X155.442 Y99.788 E0.10415
G1 X154.511 Y99.139 E0.03559
G1 X152.177 Y96.787 E0.10391
G1 X151.563 Y95.827 E0.03570
G1 X150.306 Y92.757 E0.10403
G1 X150.107 Y91.643 E0.03546
G1 X150.114 Y88.359 E0.10297
G1 X150.363 Y87.217 E0.03666
G1 X151.618 Y84.217 E0.10195
M204 S1250
; printing object motor_gear _NEMA17v2.stl id:0 copy 0
G1 E-2.24000 F4200.000
;WIPE_START
G1 F7200.000
G1 X152.293 Y83.225 E-0.66493
G1 X152.609 Y82.911 E-0.24707
;WIPE_END
G1 E-0.04800 F4200.000
G1 Z0.400 F9000.000
G1 X163.926 Y92.952
G1 Z0.200
G1 E3.20000 F2400.000
M204 S800
;TYPE:Perimeter
G1 F1200.000
G1 X157.906 Y91.782 E0.19229
G1 X157.595 Y90.379 E0.04505
G1 X157.652 Y89.352 E0.03225
G1 X157.984 Y88.378 E0.03225
G1 X158.548 Y87.556 E0.03125
G1 X158.973 Y87.152 E0.01840
G1 X159.285 Y86.923 E0.01211
G1 X159.624 Y86.725 E0.01232
G1 X159.951 Y86.574 E0.01128
G1 X160.307 Y86.451 E0.01182
G1 X160.675 Y86.363 E0.01187
G1 X161.065 Y86.313 E0.01232
G1 X161.424 Y86.301 E0.01128
G1 X161.801 Y86.326 E0.01182
G1 X162.174 Y86.389 E0.01187
G1 X162.552 Y86.494 E0.01232
G1 X162.888 Y86.623 E0.01128
G1 X163.225 Y86.793 E0.01182
G1 X163.543 Y86.995 E0.01182
G1 X163.839 Y87.228 E0.01182
G1 X164.111 Y87.490 E0.01182
G1 X164.355 Y87.777 E0.01182
G1 X164.569 Y88.088 E0.01182
G1 X164.751 Y88.418 E0.01182
G1 X164.913 Y88.796 E0.01290
G1 X165.128 Y89.767 E0.03117
G1 X165.071 Y90.794 E0.03225
G1 X164.739 Y91.767 E0.03225
G1 X163.959 Y92.902 E0.04317
M204 S1250
G1 X163.755 Y92.535 F9000.000
M204 S800
;TYPE:External perimeter
G1 F1200.000
G1 X158.220 Y91.459 E0.17677
G1 X157.975 Y90.348 E0.03567
G1 X158.026 Y89.424 E0.02900
G1 X158.324 Y88.549 E0.02900
G1 X158.837 Y87.802 E0.02838
G1 X159.216 Y87.442 E0.01641
G1 X159.492 Y87.239 E0.01074
G1 X159.799 Y87.060 E0.01114
G1 X160.092 Y86.924 E0.01012
G1 X160.413 Y86.813 E0.01064
G1 X160.743 Y86.735 E0.01065
G1 X161.095 Y86.689 E0.01114
G1 X161.418 Y86.679 E0.01012
G1 X161.757 Y86.701 E0.01064
G1 X162.092 Y86.757 E0.01065
G1 X162.434 Y86.853 E0.01114
G1 X162.735 Y86.968 E0.01012
G1 X163.038 Y87.121 E0.01064
G1 X163.325 Y87.303 E0.01064
G1 X163.591 Y87.513 E0.01064
G1 X163.836 Y87.748 E0.01064
G1 X164.055 Y88.007 E0.01064
G1 X164.248 Y88.286 E0.01064
G1 X164.412 Y88.583 E0.01064
G1 X164.552 Y88.912 E0.01120
G1 X164.748 Y89.797 E0.02844
G1 X164.697 Y90.721 E0.02900
G1 X164.399 Y91.597 E0.02900
M73 P4 R11
G1 X163.789 Y92.485 E0.03379
M204 S1250
G1 X163.641 Y92.918 F9000.000
G1 E-2.24000 F4200.000
;WIPE_START
G1 F7200.000
G1 X162.170 Y92.187 E-0.91200
;WIPE_END
G1 E-0.04800 F4200.000
G1 Z0.400 F9000.000
G1 X164.748 Y95.093
G1 Z0.200
G1 E3.20000 F2400.000
M204 S800
;TYPE:Perimeter
G1 F1200.000
G1 X162.569 Y96.007 E0.07409
G1 X160.206 Y96.017 E0.07409
G1 X158.019 Y95.123 E0.07409
G1 X156.341 Y93.459 E0.07409
G1 X155.427 Y91.280 E0.07409
G1 X155.417 Y88.917 E0.07409
G1 X156.312 Y86.730 E0.07409
G1 X157.975 Y85.052 E0.07409
G1 X160.154 Y84.138 E0.07409
G1 X162.517 Y84.128 E0.07409
G1 X164.704 Y85.023 E0.07409
G1 X166.382 Y86.686 E0.07409
G1 X167.296 Y88.865 E0.07409
G1 X167.306 Y91.228 E0.07409
G1 X166.411 Y93.415 E0.07409
G1 X164.790 Y95.051 E0.07221
M204 S1250
G1 E-2.24000 F4200.000
;WIPE_START
G1 F7200.000
G1 X163.279 Y95.701 E-0.91200
;WIPE_END
G1 E-0.04800 F4200.000
G1 Z0.400 F9000.000
G1 X165.211 Y84.256
G1 Z0.200
G1 E3.20000 F2400.000
M204 S800
G1 F1200.000
G1 X165.443 Y83.803 E0.01596
G1 X165.552 Y83.664 E0.00555
G1 X165.677 Y83.554 E0.00520
G1 X165.530 Y83.877 E0.01111
G1 X165.250 Y84.210 E0.01365
M204 S1250
G1 E-2.24000 F4200.000
;WIPE_START
G1 F7200.000
G1 X165.443 Y83.803 E-0.24980
G1 X165.552 Y83.664 E-0.09801
G1 X165.677 Y83.554 E-0.09184
G1 X165.530 Y83.877 E-0.19634
G1 X165.250 Y84.210 E-0.24119
;WIPE_END
G1 E-0.08281 F4200.000
G1 Z0.400 F9000.000
G1 X167.144 Y86.172
G1 Z0.200
G1 E3.20000 F2400.000
M204 S800
G1 F1200.000
G1 X167.531 Y85.842 E0.01596
G1 X167.686 Y85.755 E0.00555
G1 X167.843 Y85.702 E0.00520
G1 X167.583 Y85.943 E0.01111
G1 X167.197 Y86.144 E0.01365
M204 S1250
G1 E-2.24000 F4200.000
;WIPE_START
G1 F7200.000
G1 X167.531 Y85.842 E-0.24980
G1 X167.686 Y85.755 E-0.09801
G1 X167.843 Y85.702 E-0.09184
G1 X167.583 Y85.943 E-0.19633
G1 X167.197 Y86.144 E-0.24119
;WIPE_END
G1 E-0.08282 F4200.000
G1 Z0.400 F9000.000
G1 X168.197 Y88.682
G1 Z0.200
G1 E3.20000 F2400.000
M204 S800
G1 F1200.000
G1 X168.681 Y88.525 E0.01596
G1 X168.857 Y88.504 E0.00555
G1 X169.022 Y88.515 E0.00520
G1 X168.690 Y88.639 E0.01111
G1 X168.256 Y88.677 E0.01365
M204 S1250
G1 E-2.24000 F4200.000
;WIPE_START
G1 F7200.000
G1 X168.681 Y88.525 E-0.24979
G1 X168.857 Y88.504 E-0.09801
G1 X169.022 Y88.515 E-0.09184
G1 X168.690 Y88.639 E-0.19633
G1 X168.256 Y88.677 E-0.24119
;WIPE_END
G1 E-0.08283 F4200.000
G1 Z0.400 F9000.000
G1 X168.209 Y91.404
G1 Z0.200
G1 E3.20000 F2400.000
M204 S800
G1 F1200.000
G1 X168.716 Y91.444 E0.01596
G1 X168.886 Y91.492 E0.00555
G1 X169.035 Y91.565 E0.00520
G1 X168.681 Y91.552 E0.01111
G1 X168.266 Y91.422 E0.01365
M204 S1250
G1 E-2.24000 F4200.000
;WIPE_START
G1 F7200.000
G1 X168.716 Y91.444 E-0.24980
G1 X168.886 Y91.492 E-0.09801
G1 X169.035 Y91.565 E-0.09185
G1 X168.681 Y91.552 E-0.19634
G1 X168.266 Y91.422 E-0.24120
;WIPE_END
G1 E-0.08280 F4200.000
G1 Z0.400 F9000.000
G1 X167.178 Y93.923
G1 Z0.200
G1 E3.20000 F2400.000
M204 S800
G1 F1200.000
G1 X167.631 Y94.154 E0.01596
G1 X167.770 Y94.263 E0.00555
G1 X167.880 Y94.388 E0.00520
G1 X167.558 Y94.241 E0.01111
G1 X167.224 Y93.961 E0.01365
M204 S1250
G1 E-2.24000 F4200.000
;WIPE_START
G1 F7200.000
G1 X167.631 Y94.154 E-0.24980
G1 X167.770 Y94.263 E-0.09802
G1 X167.880 Y94.388 E-0.09184
G1 X167.558 Y94.241 E-0.19634
G1 X167.224 Y93.961 E-0.24120
;WIPE_END
G1 E-0.08280 F4200.000
G1 Z0.400 F9000.000
G1 X165.262 Y95.855
G1 Z0.200
G1 E3.20000 F2400.000
M204 S800
G1 F1200.000
G1 X165.592 Y96.243 E0.01596
G1 X165.679 Y96.397 E0.00555
G1 X165.732 Y96.554 E0.00520
G1 X165.491 Y96.295 E0.01111
G1 X165.290 Y95.909 E0.01365
M204 S1250
G1 E-2.24000 F4200.000
;WIPE_START
G1 F7200.000
G1 X165.592 Y96.243 E-0.24980
G1 X165.679 Y96.397 E-0.09802
G1 X165.732 Y96.554 E-0.09184
G1 X165.491 Y96.295 E-0.19634
G1 X165.290 Y95.909 E-0.24120
;WIPE_END
G1 E-0.08281 F4200.000
G1 Z0.400 F9000.000
G1 X162.752 Y96.908
G1 Z0.200
G1 E3.20000 F2400.000
M204 S800
G1 F1200.000
G1 X162.909 Y97.392 E0.01596
G1 X162.930 Y97.568 E0.00555
G1 X162.919 Y97.733 E0.00520
G1 X162.795 Y97.401 E0.01111
G1 X162.757 Y96.968 E0.01365
M204 S1250
G1 E-2.24000 F4200.000
;WIPE_START
G1 F7200.000
G1 X162.909 Y97.392 E-0.24980
G1 X162.930 Y97.568 E-0.09801
G1 X162.919 Y97.733 E-0.09184
G1 X162.795 Y97.401 E-0.19634
G1 X162.757 Y96.968 E-0.24119
;WIPE_END
G1 E-0.08282 F4200.000
G1 Z0.400 F9000.000
G1 X160.031 Y96.920
G1 Z0.200
G1 E3.20000 F2400.000
M204 S800
G1 F1200.000
G1 X159.990 Y97.427 E0.01596
G1 X159.942 Y97.597 E0.00555
G1 X159.869 Y97.746 E0.00520
G1 X159.882 Y97.392 E0.01111
G1 X160.012 Y96.977 E0.01365
M204 S1250
G1 E-2.24000 F4200.000
;WIPE_START
G1 F7200.000
G1 X159.990 Y97.427 E-0.24979
G1 X159.942 Y97.597 E-0.09801
G1 X159.869 Y97.746 E-0.09185
G1 X159.882 Y97.392 E-0.19633
G1 X160.012 Y96.977 E-0.24119
;WIPE_END
G1 E-0.08282 F4200.000
G1 Z0.400 F9000.000
G1 X157.512 Y95.889
M73 P5 R11
G1 Z0.200
G1 E3.20000 F2400.000
M204 S800
G1 F1200.000
G1 X157.280 Y96.343 E0.01596
G1 X157.171 Y96.482 E0.00555
G1 X157.046 Y96.591 E0.00520
G1 X157.193 Y96.269 E0.01111
G1 X157.473 Y95.935 E0.01365
M204 S1250
G1 E-2.24000 F4200.000
;WIPE_START
G1 F7200.000
G1 X157.280 Y96.343 E-0.24980
G1 X157.171 Y96.482 E-0.09801
G1 X157.046 Y96.591 E-0.09184
G1 X157.193 Y96.269 E-0.19634
G1 X157.473 Y95.935 E-0.24119
;WIPE_END
G1 E-0.08282 F4200.000
G1 Z0.400 F9000.000
G1 X155.579 Y93.973
G1 Z0.200
G1 E3.20000 F2400.000
M204 S800
G1 F1200.000
G1 X155.191 Y94.304 E0.01596
G1 X155.037 Y94.390 E0.00555
G1 X154.880 Y94.444 E0.00520
G1 X155.139 Y94.202 E0.01111
G1 X155.525 Y94.001 E0.01365
M204 S1250
G1 E-2.24000 F4200.000
;WIPE_START
G1 F7200.000
G1 X155.191 Y94.304 E-0.24980
G1 X155.037 Y94.390 E-0.09802
G1 X154.880 Y94.444 E-0.09184
G1 X155.139 Y94.202 E-0.19634
G1 X155.525 Y94.001 E-0.24119
;WIPE_END
G1 E-0.08281 F4200.000
G1 Z0.400 F9000.000
G1 X154.526 Y91.463
G1 Z0.200
G1 E3.20000 F2400.000
M204 S800
G1 F1200.000
G1 X154.042 Y91.620 E0.01596
G1 X153.866 Y91.641 E0.00555
G1 X153.701 Y91.631 E0.00520
G1 X154.033 Y91.507 E0.01111
G1 X154.466 Y91.469 E0.01365
M204 S1250
G1 E-2.24000 F4200.000
;WIPE_START
G1 F7200.000
G1 X154.042 Y91.620 E-0.24979
G1 X153.866 Y91.641 E-0.09801
G1 X153.701 Y91.631 E-0.09184
G1 X154.033 Y91.507 E-0.19634
G1 X154.466 Y91.469 E-0.24119
;WIPE_END
G1 E-0.08282 F4200.000
G1 Z0.400 F9000.000
G1 X154.514 Y88.742
G1 Z0.200
G1 E3.20000 F2400.000
M204 S800
G1 F1200.000
G1 X154.007 Y88.702 E0.01596
G1 X153.837 Y88.653 E0.00555
G1 X153.688 Y88.580 E0.00520
G1 X154.042 Y88.593 E0.01111
G1 X154.457 Y88.724 E0.01365
M204 S1250
G1 E-2.24000 F4200.000
;WIPE_START
G1 F7200.000
G1 X154.007 Y88.702 E-0.24980
G1 X153.837 Y88.653 E-0.09801
G1 X153.688 Y88.580 E-0.09185
G1 X154.042 Y88.593 E-0.19634
G1 X154.457 Y88.724 E-0.24120
;WIPE_END
G1 E-0.08281 F4200.000
G1 Z0.400 F9000.000
G1 X155.545 Y86.223
G1 Z0.200
G1 E3.20000 F2400.000
M204 S800
G1 F1200.000
G1 X155.091 Y85.992 E0.01596
G1 X154.953 Y85.882 E0.00555
G1 X154.843 Y85.758 E0.00520
G1 X155.165 Y85.905 E0.01111
G1 X155.499 Y86.184 E0.01365
M204 S1250
G1 E-2.24000 F4200.000
;WIPE_START
G1 F7200.000
G1 X155.091 Y85.992 E-0.24979
G1 X154.953 Y85.882 E-0.09802
G1 X154.843 Y85.758 E-0.09184
G1 X155.165 Y85.905 E-0.19634
G1 X155.499 Y86.184 E-0.24119
;WIPE_END
G1 E-0.08282 F4200.000
G1 Z0.400 F9000.000
G1 X157.461 Y84.290
G1 Z0.200
G1 E3.20000 F2400.000
M204 S800
G1 F1200.000
G1 X157.130 Y83.903 E0.01596
G1 X157.044 Y83.748 E0.00555
G1 X156.991 Y83.591 E0.00520
G1 X157.232 Y83.851 E0.01111
G1 X157.433 Y84.237 E0.01365
M204 S1250
G1 E-2.24000 F4200.000
;WIPE_START
G1 F7200.000
G1 X157.130 Y83.903 E-0.24980
G1 X157.044 Y83.748 E-0.09802
G1 X156.991 Y83.591 E-0.09184
G1 X157.232 Y83.851 E-0.19634
G1 X157.433 Y84.237 E-0.24119
;WIPE_END
G1 E-0.08281 F4200.000
G1 Z0.400 F9000.000
G1 X159.971 Y83.237
G1 Z0.200
G1 E3.20000 F2400.000
M204 S800
G1 F1200.000
G1 X159.814 Y82.753 E0.01596
G1 X159.793 Y82.578 E0.00555
G1 X159.804 Y82.412 E0.00520
G1 X159.927 Y82.744 E0.01111
G1 X159.966 Y83.178 E0.01365
M204 S1250
G1 E-2.24000 F4200.000
;WIPE_START
G1 F7200.000
G1 X159.814 Y82.753 E-0.24980
G1 X159.793 Y82.578 E-0.09801
G1 X159.804 Y82.412 E-0.09185
G1 X159.927 Y82.744 E-0.19634
G1 X159.966 Y83.178 E-0.24119
;WIPE_END
G1 E-0.08281 F4200.000
G1 Z0.400 F9000.000
G1 X162.692 Y83.226
G1 Z0.200
G1 E3.20000 F2400.000
M204 S800
G1 F1200.000
G1 X162.733 Y82.718 E0.01596
G1 X162.781 Y82.548 E0.00555
G1 X162.854 Y82.399 E0.00520
G1 X162.841 Y82.753 E0.01111
G1 X162.710 Y83.168 E0.01365
M204 S1250
G1 X162.884 Y83.871 F9000.000
M204 S800
;TYPE:External perimeter
G1 F1200.000
G1 X164.622 Y84.582 E0.05886
G1 X165.124 Y83.598 E0.03462
G1 X165.277 Y83.403 E0.00778
G1 X165.555 Y83.159 E0.01161
G1 X166.025 Y82.866 E0.01736
G1 X166.166 Y82.959 E0.00530
G1 X166.114 Y83.394 E0.01374
G1 X166.010 Y83.760 E0.01193
G1 X165.847 Y84.085 E0.01141
G1 X165.142 Y84.926 E0.03440
G1 X166.475 Y86.248 E0.05886
G1 X167.315 Y85.531 E0.03462
G1 X167.532 Y85.410 E0.00778
G1 X167.882 Y85.290 E0.01161
G1 X168.428 Y85.199 E0.01736
G1 X168.522 Y85.339 E0.00530
G1 X168.308 Y85.721 E0.01374
G1 X168.072 Y86.020 E0.01193
G1 X167.797 Y86.257 E0.01141
G1 X166.824 Y86.764 E0.03440
G1 X167.550 Y88.496 E0.05886
G1 X168.600 Y88.155 E0.03462
G1 X168.846 Y88.126 E0.00778
G1 X169.216 Y88.149 E0.01161
G1 X169.755 Y88.274 E0.01736
G1 X169.789 Y88.440 E0.00530
G1 X169.445 Y88.711 E0.01374
G1 X169.112 Y88.896 E0.01193
G1 X168.767 Y89.010 E0.01141
G1 X167.674 Y89.106 E0.03440
G1 X167.682 Y90.984 E0.05886
G1 X168.783 Y91.071 E0.03462
M73 P5 R10
G1 X169.022 Y91.138 E0.00778
G1 X169.354 Y91.301 E0.01161
G1 X169.805 Y91.623 E0.01736
G1 X169.772 Y91.789 E0.00530
G1 X169.351 Y91.907 E0.01374
G1 X168.973 Y91.952 E0.01193
G1 X168.610 Y91.925 E0.01141
G1 X167.563 Y91.596 E0.03440
G1 X166.852 Y93.333 E0.05886
G1 X167.836 Y93.835 E0.03462
G1 X168.031 Y93.989 E0.00778
G1 X168.275 Y94.267 E0.01161
G1 X168.569 Y94.736 E0.01736
G1 X168.475 Y94.877 E0.00530
G1 X168.040 Y94.825 E0.01374
G1 X167.674 Y94.722 E0.01193
G1 X167.349 Y94.558 E0.01141
G1 X166.508 Y93.853 E0.03440
G1 X165.187 Y95.186 E0.05886
G1 X165.903 Y96.026 E0.03462
G1 X166.024 Y96.243 E0.00778
G1 X166.144 Y96.593 E0.01161
G1 X166.235 Y97.139 E0.01736
G1 X166.095 Y97.234 E0.00530
G1 X165.713 Y97.019 E0.01374
G1 X165.415 Y96.783 E0.01193
G1 X165.177 Y96.508 E0.01141
G1 X164.670 Y95.535 E0.03440
G1 X162.939 Y96.261 E0.05886
G1 X163.279 Y97.311 E0.03462
G1 X163.308 Y97.558 E0.00778
G1 X163.285 Y97.927 E0.01161
G1 X163.160 Y98.466 E0.01736
G1 X162.994 Y98.500 E0.00530
